SVG_Azure_All/Mixed Reality Product Visualise.svg

<?xml version="1.0" encoding="UTF-8" standalone="no"?>
<!-- Generated by Microsoft Visio, SVG Export Mixed Reality Product Visualise.svg Page-1 -->

<svg
   xmlns:dc="http://purl.org/dc/elements/1.1/"
   xmlns:cc="http://creativecommons.org/ns#"
   xmlns:rdf="http://www.w3.org/1999/02/22-rdf-syntax-ns#"
   xmlns:svg="http://www.w3.org/2000/svg"
   xmlns="http://www.w3.org/2000/svg"
   xmlns:sodipodi="http://sodipodi.sourceforge.net/DTD/sodipodi-0.dtd"
   xmlns:inkscape="http://www.inkscape.org/namespaces/inkscape"
   width="0.78735912in"
   height="0.78443277in"
   viewBox="0 0 56.689882 56.479299"
   xml:space="preserve"
   class="st7"
   version="1.1"
   id="svg68"
   sodipodi:docname="Mixed Reality Product Visualise.svg"
   style="font-size:12px;overflow:visible;color-interpolation-filters:sRGB;fill:none;fill-rule:evenodd;stroke-linecap:square;stroke-miterlimit:3"
   inkscape:version="0.92.5 (2060ec1f9f, 2020-04-08)"><metadata
   id="metadata72"><rdf:RDF><cc:Work
       rdf:about=""><dc:format>image/svg+xml</dc:format><dc:type
         rdf:resource="http://purl.org/dc/dcmitype/StillImage" /></cc:Work></rdf:RDF></metadata><sodipodi:namedview
   pagecolor="#ffffff"
   bordercolor="#666666"
   borderopacity="1"
   objecttolerance="10"
   gridtolerance="10"
   guidetolerance="10"
   inkscape:pageopacity="0"
   inkscape:pageshadow="2"
   inkscape:window-width="640"
   inkscape:window-height="480"
   id="namedview70"
   showgrid="false"
   inkscape:zoom="1.8365233"
   inkscape:cx="37.795211"
   inkscape:cy="18.753684"
   inkscape:window-x="0"
   inkscape:window-y="0"
   inkscape:window-maximized="0"
   inkscape:current-layer="svg68" />
	<style
   type="text/css"
   id="style2">
	<![CDATA[
		.st1 {fill:url(#grad0-7);stroke:none;stroke-linecap:butt;stroke-width:5.76152}
		.st2 {fill:url(#grad0-11);stroke:none;stroke-linecap:butt;stroke-width:5.76152}
		.st3 {fill:#000000;fill-opacity:0.32;stroke:none;stroke-linecap:butt;stroke-width:5.76152}
		.st4 {fill:#000000;fill-opacity:0.24;stroke:none;stroke-linecap:butt;stroke-width:5.76152}
		.st5 {fill:url(#grad0-19);stroke:none;stroke-linecap:butt;stroke-width:5.76152}
		.st6 {fill:url(#grad0-23);stroke:none;stroke-linecap:butt;stroke-width:5.76152}
		.st7 {fill:none;fill-rule:evenodd;font-size:12px;overflow:visible;stroke-linecap:square;stroke-miterlimit:3}
	]]>
	</style>

	<defs
   id="Patterns_And_Gradients">
		<linearGradient
   id="grad0-7"
   x1="0"
   y1="55.664816"
   x2="51.111808"
   y2="55.664816"
   gradientTransform="scale(1.109137,0.90160184)"
   gradientUnits="userSpaceOnUse">
			<stop
   offset="0.21"
   stop-color="#158915"
   stop-opacity="1"
   id="stop4" />
			<stop
   offset="1"
   stop-color="#065f18"
   stop-opacity="1"
   id="stop6" />
		</linearGradient>
		<linearGradient
   id="grad0-11"
   x1="0"
   y1="54.559022"
   x2="45.468016"
   y2="54.559022"
   gradientTransform="scale(1.0389721,0.96248976)"
   gradientUnits="userSpaceOnUse">
			<stop
   offset="0"
   stop-color="#34a117"
   stop-opacity="1"
   id="stop9" />
			<stop
   offset="1"
   stop-color="#6ad116"
   stop-opacity="1"
   id="stop11" />
		</linearGradient>
		<linearGradient
   id="grad0-19"
   x1="0"
   y1="52.659084"
   x2="37.73502"
   y2="52.659084"
   gradientTransform="scale(0.93891564,1.0650584)"
   gradientUnits="userSpaceOnUse">
			<stop
   offset="0"
   stop-color="#8fdc50"
   stop-opacity="1"
   id="stop14" />
			<stop
   offset="1"
   stop-color="#7bca52"
   stop-opacity="1"
   id="stop16" />
		</linearGradient>
		<linearGradient
   id="grad0-23"
   x1="0.11556654"
   y1="98.96709"
   x2="26.07553"
   y2="98.96709"
   gradientTransform="scale(1.2976738,0.7706097)"
   gradientUnits="userSpaceOnUse">
			<stop
   offset="0"
   stop-color="#c3f488"
   stop-opacity="1"
   id="stop19" />
			<stop
   offset="1"
   stop-color="#8fdc50"
   stop-opacity="1"
   id="stop21" />
		</linearGradient>
	</defs>
	<g
   id="g66"
   transform="translate(-5.7615911,-5.775)">
		<title
   id="title25">Page-1</title>
		<g
   id="group3032-1"
   transform="translate(5.76152,-34.0157)">
			<title
   id="title27">Mixed Reality Product Visualise</title>
			<g
   id="group3033-2">
				<title
   id="title29">g23</title>
				<g
   id="group3034-3">
					<title
   id="title31">g21</title>
					<g
   id="shape3035-4">
						<title
   id="title33">path5</title>
						<path
   d="m 55.53,65.89 c 0.72,0.43 1.16,1.21 1.16,2.04 v 10.59 c 0,0.84 -0.44,1.62 -1.16,2.04 L 29.55,95.94 c -0.74,0.44 -1.66,0.44 -2.4,0 L 1.16,80.56 C 0.44,80.14 0,79.36 0,78.52 V 67.93 C 0,67.1 0.44,66.32 1.16,65.89 L 27.15,50.51 c 0.74,-0.43 1.66,-0.43 2.4,0 z"
   class="st1"
   id="path35"
   inkscape:connector-curvature="0"
   style="fill:url(#grad0-7);stroke:none;stroke-width:5.76151991;stroke-linecap:butt" />
					</g>
					<g
   id="shape3036-8"
   transform="translate(4.7244,-7.99041)">
						<title
   id="title38">path7</title>
						<path
   d="m 46.05,83.74 c 0.74,-0.43 1.19,-1.21 1.19,-2.06 V 67.11 c 0,-0.85 -0.45,-1.64 -1.19,-2.06 L 24.79,52.82 c -0.72,-0.41 -1.62,-0.41 -2.34,0 L 1.19,65.05 C 0.45,65.47 0,66.26 0,67.11 v 14.57 c 0,0.85 0.45,1.63 1.19,2.06 l 21.26,12.22 c 0.72,0.42 1.62,0.42 2.34,0 z"
   class="st2"
   id="path40"
   inkscape:connector-curvature="0"
   style="fill:url(#grad0-11);stroke:none;stroke-width:5.76151991;stroke-linecap:butt" />
					</g>
					<g
   id="shape3037-12"
   transform="translate(10.6299,-15.1084)">
						<title
   id="title43">path9</title>
						<path
   d="m 16.54,56.4 c 0.73,-0.42 1.62,-0.42 2.35,0 l 15.36,8.87 c 0.73,0.42 1.18,1.2 1.18,2.05 v 17.72 c 0,0.84 -0.45,1.63 -1.18,2.05 l -15.36,8.87 c -0.73,0.42 -1.62,0.42 -2.35,0 L 1.18,87.09 C 0.45,86.67 0,85.88 0,85.04 V 67.32 c 0,-0.85 0.45,-1.63 1.18,-2.05 z"
   class="st3"
   id="path45"
   inkscape:connector-curvature="0"
   style="fill:#000000;fill-opacity:0.31999996;stroke:none;stroke-width:5.76151991;stroke-linecap:butt" />
					</g>
					<g
   id="shape3038-14"
   transform="translate(10.6299,-16.069)">
						<title
   id="title48">path13</title>
						<path
   d="m 16.54,56.4 c 0.73,-0.42 1.62,-0.42 2.35,0 l 15.36,8.87 c 0.73,0.42 1.18,1.2 1.18,2.05 v 17.72 c 0,0.84 -0.45,1.63 -1.18,2.05 l -15.36,8.87 c -0.73,0.42 -1.62,0.42 -2.35,0 L 1.18,87.09 C 0.45,86.67 0,85.88 0,85.04 V 67.32 c 0,-0.85 0.45,-1.63 1.18,-2.05 z"
   class="st4"
   id="path50"
   inkscape:connector-curvature="0"
   style="fill:#000000;fill-opacity:0.23999999;stroke:none;stroke-width:5.76151991;stroke-linecap:butt" />
					</g>
					<g
   id="shape3039-16"
   transform="translate(10.6299,-16.2943)">
						<title
   id="title53">path17</title>
						<path
   d="m 16.54,56.4 c 0.73,-0.42 1.62,-0.42 2.35,0 l 15.36,8.87 c 0.73,0.42 1.18,1.2 1.18,2.05 v 17.72 c 0,0.84 -0.45,1.63 -1.18,2.05 l -15.36,8.87 c -0.73,0.42 -1.62,0.42 -2.35,0 L 1.18,87.09 C 0.45,86.67 0,85.88 0,85.04 V 67.32 c 0,-0.85 0.45,-1.63 1.18,-2.05 z"
   class="st5"
   id="path55"
   inkscape:connector-curvature="0"
   style="fill:url(#grad0-19);stroke:none;stroke-width:5.76151991;stroke-linecap:butt" />
					</g>
					<g
   id="shape3040-20"
   transform="translate(11.3546,-36.4711)">
						<title
   id="title58">path19</title>
						<path
   d="m 15.81,76.58 c 0.73,-0.42 1.63,-0.42 2.36,0 l 15.22,8.78 c 0.59,0.34 0.6,1.19 0.01,1.54 l -15.21,9.04 c -0.74,0.44 -1.66,0.44 -2.4,0 L 0.58,86.9 C 0,86.55 0.01,85.7 0.59,85.36 Z"
   class="st6"
   id="path60"
   inkscape:connector-curvature="0"
   style="fill:url(#grad0-23);stroke:none;stroke-width:5.76151991;stroke-linecap:butt" />
					</g>
				</g>
			</g>
		</g>
	</g>
</svg>

<?xml version="1.0" encoding="UTF-8" standalone="no"?>
<!DOCTYPE svg PUBLIC "-//W3C//DTD SVG 1.1//EN" "http://www.w3.org/Graphics/SVG/1.1/DTD/svg11.dtd">
<!-- Generated by Microsoft Visio, SVG Export Mixed Reality Product Visualise.svg Page-1 -->
<svg xmlns="http://www.w3.org/2000/svg" xmlns:xlink="http://www.w3.org/1999/xlink" xmlns:ev="http://www.w3.org/2001/xml-events"
		width="0.947444in" height="1.33858in" viewBox="0 0 68.216 96.378" xml:space="preserve" color-interpolation-filters="sRGB"
		class="st7">
	<style type="text/css">
	<![CDATA[
		.st1 {fill:url(#grad0-7);stroke:none;stroke-linecap:butt;stroke-width:5.76152}
		.st2 {fill:url(#grad0-11);stroke:none;stroke-linecap:butt;stroke-width:5.76152}
		.st3 {fill:#000000;fill-opacity:0.32;stroke:none;stroke-linecap:butt;stroke-width:5.76152}
		.st4 {fill:#000000;fill-opacity:0.24;stroke:none;stroke-linecap:butt;stroke-width:5.76152}
		.st5 {fill:url(#grad0-19);stroke:none;stroke-linecap:butt;stroke-width:5.76152}
		.st6 {fill:url(#grad0-23);stroke:none;stroke-linecap:butt;stroke-width:5.76152}
		.st7 {fill:none;fill-rule:evenodd;font-size:12px;overflow:visible;stroke-linecap:square;stroke-miterlimit:3}
	]]>
	</style>

	<defs id="Patterns_And_Gradients">
		<linearGradient id="grad0-7" x1="0" y1="0" x2="1" y2="0" gradientTransform="rotate(-9.9541799587746 0.5 0.5)">
			<stop offset="0.21" stop-color="#158915" stop-opacity="1"/>
			<stop offset="1" stop-color="#065f18" stop-opacity="1"/>
		</linearGradient>
		<linearGradient id="grad0-11" x1="0" y1="0" x2="1" y2="0" gradientTransform="rotate(-100.59655691742 0.5 0.5)">
			<stop offset="0" stop-color="#34a117" stop-opacity="1"/>
			<stop offset="1" stop-color="#6ad116" stop-opacity="1"/>
		</linearGradient>
		<linearGradient id="grad0-19" x1="0" y1="0" x2="1" y2="0" gradientTransform="rotate(37.819527376282 0.5 0.5)">
			<stop offset="0" stop-color="#8fdc50" stop-opacity="1"/>
			<stop offset="1" stop-color="#7bca52" stop-opacity="1"/>
		</linearGradient>
		<linearGradient id="grad0-23" x1="0" y1="0" x2="1" y2="0" gradientTransform="rotate(86.583520278871 0.5 0.5)">
			<stop offset="0" stop-color="#c3f488" stop-opacity="1"/>
			<stop offset="1" stop-color="#8fdc50" stop-opacity="1"/>
		</linearGradient>
	</defs>
	<g>
		<title>Page-1</title>
		<g id="group3006-1" transform="translate(5.76152,-34.0157)">
			<title>Mixed Reality Product Visualise</title>
			<g id="group3007-2">
				<title>g23</title>
				<g id="group3008-3">
					<title>g21</title>
					<g id="shape3009-4">
						<title>path5</title>
						<path d="M55.53 65.89 C56.25 66.32 56.69 67.1 56.69 67.93 L56.69 78.52 C56.69 79.36 56.25 80.14 55.53 80.56
									 L29.55 95.94 C28.81 96.38 27.89 96.38 27.15 95.94 L1.16 80.56 C0.44 80.14 0 79.36 0 78.52 L0
									 67.93 C0 67.1 0.44 66.32 1.16 65.89 L27.15 50.51 C27.89 50.08 28.81 50.08 29.55 50.51 L55.53
									 65.89 Z" class="st1"/>
					</g>
					<g id="shape3010-8" transform="translate(4.7244,-7.99041)">
						<title>path7</title>
						<path d="M46.05 83.74 C46.79 83.31 47.24 82.53 47.24 81.68 L47.24 67.11 C47.24 66.26 46.79 65.47 46.05 65.05
									 L24.79 52.82 C24.07 52.41 23.17 52.41 22.45 52.82 L1.19 65.05 C0.45 65.47 0 66.26 0 67.11 L0
									 81.68 C0 82.53 0.45 83.31 1.19 83.74 L22.45 95.96 C23.17 96.38 24.07 96.38 24.79 95.96 L46.05
									 83.74 Z" class="st2"/>
					</g>
					<g id="shape3011-12" transform="translate(10.6299,-15.1084)">
						<title>path9</title>
						<path d="M16.54 56.4 C17.27 55.98 18.16 55.98 18.89 56.4 L34.25 65.27 C34.98 65.69 35.43 66.47 35.43 67.32
									 L35.43 85.04 C35.43 85.88 34.98 86.67 34.25 87.09 L18.89 95.96 C18.16 96.38 17.27 96.38 16.54
									 95.96 L1.18 87.09 C0.45 86.67 0 85.88 0 85.04 L0 67.32 C0 66.47 0.45 65.69 1.18 65.27 L16.54
									 56.4 Z" class="st3"/>
					</g>
					<g id="shape3012-14" transform="translate(10.6299,-16.069)">
						<title>path13</title>
						<path d="M16.54 56.4 C17.27 55.98 18.16 55.98 18.89 56.4 L34.25 65.27 C34.98 65.69 35.43 66.47 35.43 67.32
									 L35.43 85.04 C35.43 85.88 34.98 86.67 34.25 87.09 L18.89 95.96 C18.16 96.38 17.27 96.38 16.54
									 95.96 L1.18 87.09 C0.45 86.67 0 85.88 0 85.04 L0 67.32 C0 66.47 0.45 65.69 1.18 65.27 L16.54
									 56.4 Z" class="st4"/>
					</g>
					<g id="shape3013-16" transform="translate(10.6299,-16.2943)">
						<title>path17</title>
						<path d="M16.54 56.4 C17.27 55.98 18.16 55.98 18.89 56.4 L34.25 65.27 C34.98 65.69 35.43 66.47 35.43 67.32
									 L35.43 85.04 C35.43 85.88 34.98 86.67 34.25 87.09 L18.89 95.96 C18.16 96.38 17.27 96.38 16.54
									 95.96 L1.18 87.09 C0.45 86.67 0 85.88 0 85.04 L0 67.32 C0 66.47 0.45 65.69 1.18 65.27 L16.54
									 56.4 Z" class="st5"/>
					</g>
					<g id="shape3014-20" transform="translate(11.3546,-36.4711)">
						<title>path19</title>
						<path d="M15.81 76.58 C16.54 76.16 17.44 76.16 18.17 76.58 L33.39 85.36 C33.98 85.7 33.99 86.55 33.4 86.9
									 L18.19 95.94 C17.45 96.38 16.53 96.38 15.79 95.94 L0.58 86.9 C0 86.55 0.01 85.7 0.59 85.36 L15.81
									 76.58 Z" class="st6"/>
					</g>
				</g>
			</g>
		</g>
	</g>
</svg>
